X:1
T:Title
%%score { 1 | 2 } { 3 | 4 }
L:1/8
Q:1/4=150
M:2/2
K:C
V:1 treble nm="Grand Piano, Treble Clef"
V:2 treble 
V:3 treble nm="Choir Pad, Cambridge (Randall)"
V:4 bass 
V:1
 c4 e2 e2 | d4 c4 | f4 e4 | d8 | c4 e2 gd | c4 B4 | c8 | c4 e2 e2 | d4 c4 | f4 e4 | d8 | c4 d2 c2 | %12
w: By~John~Randall,~1790 * *||||||||||||
 B2 A2 G4- | G4 e4 | f2 e2 d2 c2 | d2 d2 e2 fd | c4 B4 | c8- | c4 z4 |] %19
w: |||||||
V:2
 E4 G2 G2 | G4 z4 | A4 c4 | B8 | G4 G2 F2 | A4 G4 | G8 | G4 G2 G2 | B4 z4 | A4 c4 | B8 | G4 G2 G2 | %12
 G2 F2 z4 | z4 G4 | A2 G2 F2 E2 | G2 B2 c2 c2 | A4 G4 | G8- | G4 z4 |] %19
V:3
 G,4 C2 C2 | B,4 E4 | C4 A,4 | G,8 | E4 C2 CD | C4 D4 | E8 | E4 G2 G2 | D4 E4 | C4 C4 | D8 | %11
 E4 F2 E2 | D2 C2 D4- | D4 C4 | D2 C2[K:bass] B,2 A,2 | G,2 G,2 C2[K:treble] E2 | C4 D4 | E8- | %18
 E4 z4 |] %19
V:4
 C,4 C,2 C,2 | G,4 A,4 | F,4 C,4 | z8 | C4 z2 A,2 | F,4 G,4 | C,8 | C4 C2 C2 | G,4 A,4 | F,4 C,4 | %10
 G,8 | C4 B,2 C2 | z2 D,2 G,4- | G,4 z4 | z8 | z4 z2 C2 | F,4 G,4 | C,8- | C,4 z4 |] %19

